X: 28634
T: Music O' Spey, The
R: strathspey
M: 4/4
K: Dmajor
M:4/
L: 1/4
A2|Jf2 ee/d/ A2 A2|~B>A B<d A2 Bc|d2 d2 d2 d2|Je4 a2 A2|
f2 e>d A2 A2|BB/A/ B<d A2 Bc|d2 d2 e2 a2|d6 A2||
g2 g g/f/ e3 A|a2 a a/g/ f2 ga|b2 a2 g2 f2|Jf3 g/f/ e2 a>g|
f2 ee/d/ A2 A2|BB/A/ B<d A2 Bc|d2 d2 e2 a2|d6 A2||

